X:1
T:Title
%%score { ( 1 4 ) | ( 2 3 ) }
L:1/8
Q:1/4=100
M:4/4
K:Eb
V:1 treble nm="Grand Piano"
V:4 treble 
V:2 bass 
V:3 bass 
V:1
 [EG]2 [DG][DF] EGBe | [EBd]2 [EAc]2 [EGB]4 | [CGc]2 [CG][CGB] [CGB]AGF | F2 G>F [B,DF]4 | %4
w: Lester~Price * * * * * *||||
 [B,EG]2 [B,DG][A,DF] [G,B,E]GBe | [Bd]2 [Ac]2 [GB]4 | [G_d]2 [CGc][_DG] [DGB][FA][B,EG][CF] | %7
w: |||
[M:5/4] z2 D2 z2 z4 |[M:4/4] [G,=B,DG]2 [G,B,DG]>[G,B,DG] [CEG]4 | %9
w: ||
 [B,DFB]2 [B,DFB]>[B,DFB] [EGB]4 | [EAc]2 [EAc][EAc] [EB]2 .[EBd]2 | [=Af]2 [FAe]2 d2- [_Ad]2 | %12
w: |||
 [Ge]2 [Ge]>[Ge] [EG]4 | [EA]2 B>B c4 | e2 dc cBGB |[M:5/4] [DAc]2 [Ad]2 [Ge]6 |] %16
w: ||||
V:2
 z4 .[G,B,]2 z2 | A,2 A,2 E,4 | =E,2 E,E, E,[F,CF][G,B,E][A,C] | [F,=A,E]2 [F,A,E]2 B,,4 | %4
 E,2 B,,B,, z [B,E] [G,E]2 | [A,E]2 [A,E]2 [E,E]4 | [=E,B,]2 E,E, E,CG,A, |[M:5/4] B,,2 z A, E,6 | %8
[M:4/4] G,,2 G,,>G,, C,4 | B,,2 B,,>B,, E,4 | A,2 A,A, z[K:treble] c z e | [F,E]2 F,2 B,2 B,2 | %12
 [E,B,]2 [E,B,]>[E,B,] [_D,B,]4 | [C,A,]2 [E,G,E]>[E,G,E][K:treble] [A,E]4 | %14
 [=A,C_G]2 [A,DG][A,EG] [B,E=G]2 EG |[M:5/4][K:bass] [B,,B,]2 [B,,B,]2 [E,B,]6 |] %16
V:3
 [E,B,]2 [B,,B,][B,,A,] E,-[E,B,E] [G,E]2 | x8 | x8 | x8 | z4 E,2 z2 | x8 | x8 | %7
[M:5/4] z2 B,,2 z2 z4 |[M:4/4] x8 | x8 | z4 G,2[K:treble] G,2 | x8 | x8 | x4[K:treble] x4 | %14
 z4 z2 B,2 |[M:5/4][K:bass] x10 |] %16
V:4
 x8 | x8 | x8 | x8 | x8 | x8 | x8 |[M:5/4] [G,B,E]2 [B,G]F [G,E]6 |[M:4/4] x8 | x8 | x8 | %11
 z4 [FB]2 z2 | x8 | x8 | x8 |[M:5/4] x10 |] %16

